X: 2
T: Pdraig O'Keeffe's
M: 2/4
L: 1/8
R: polka
K: A Major
|: A>B ce | fg a2 | fe ce | f/a/f/e/ cB |
A>B ce | fg a2|fe cB|A2 A2 :|
|: a>g fe | fg a2 | fe ce | f/a/f/e/ ce |
a>g fe | fg a2 | fe cB | A2 A2 :|
